X: 1
T:Match Making. HSJJ.071
M:6/8
L:1/8
Q:110
S:HSJ Jackson,Wyresdale,Lancs.1823
R:Quadrille
O:England
A:Lancashire
H:1823
Z:Chris Partington.
K:G
d/-c/|B2dg2B|d3cBA|FAc edc|A3-Bdc|B2dg2b|!e2gc2e|dgB dcA|A3-G2:|
|:F/G/|A3fed|d3-^cc-d|!eba ^gae|=g3-ff-g|add (d^c=c|Bef gab|a2f (age)|e3
-d2:|]
